src/icons/logo.svg

<svg width="151" height="28" viewBox="0 0 151 28" xmlns="http://www.w3.org/2000/svg">
  <path d="M53.3553 17.8378L50.9914 20.9782H32.0848L31.1525 17.8378H31.1499L36.4244 10.8319L38.6966 12.1503L36.5358 6.58721L20.8784 28L17.7529 16.2916L9.08022 28L3.50697 7.12406L6.47215 7.47317L0 0H7.23839L11.0913 14.4338L9.42726 18.7997L15.39 10.6521L22.7961 0H29.2401L21.8797 10.6515L24.0282 18.7001L24.3232 14.7038L34.9121 0H41.3529L36.6244 6.46645H61.265L58.8989 9.60949H45.3995L43.485 12.1508H55.42L53.0539 15.2939H41.1216L40.0762 16.6829L34.9195 17.8378H53.3553ZM126.846 17.8378L132.003 16.6829L139.686 6.46645H128.415L130.623 12.1508L128.351 10.8324L123.076 17.8384H106.38L111.537 16.6835L119.22 6.46697H108.496H84.1009L89.221 0H65.6183L67.7897 5.68438L65.4496 4.40501L60.0727 12.0021L76.326 11.8423L72.324 12.4715L68.1861 17.8363H63.5122L66.2752 14.1664L57.8785 14.8519L53.3171 20.9793H73.6054L82.5641 8.91865L67.0351 9.2203L70.4184 8.57535L74.4364 3.1441H79.2031L76.0533 7.13514L83.7321 6.49809L85.9284 12.1519L83.6562 10.8335L78.3817 17.8394H78.3843L79.3167 20.9798H98.2232L100.587 17.8394H82.1518L87.3086 16.6845L88.3539 15.2955H100.286L102.652 12.1524H90.7174L92.6319 9.61107H106.131L108.137 6.9474L110.158 12.1524L107.886 10.834L102.612 17.8399H102.614L103.547 20.9804H121.17L123.207 18.2745L124.013 20.9804H141.636L144 17.8399H126.846V17.8378Z" />
</svg>

<svg xmlns="http://www.w3.org/2000/svg" width="151" height="28">
  <path d="m53.355 17.838-2.364 3.14H32.085l-.933-3.14h-.002l5.274-7.006 2.273 1.318-2.161-5.563L20.878 28l-3.125-11.708L9.08 28 3.507 7.124l2.965.35L0 0h7.238l3.853 14.434L9.427 18.8l5.963-8.148L22.796 0h6.444l-7.36 10.652 2.148 8.048.295-3.996L34.913 0h6.44l-4.729 6.466h24.641L58.899 9.61h-13.5l-1.914 2.542H55.42l-2.366 3.143H41.122l-1.046 1.389-5.157 1.155h18.436Zm73.491 0 5.157-1.155 7.683-10.217h-11.271l2.208 5.685-2.272-1.319-5.275 7.006H106.38l5.157-1.155 7.683-10.216H84.101L89.22 0H65.618l2.172 5.684-2.34-1.279-5.377 7.597 16.253-.16-4.002.63-4.138 5.364h-4.674l2.763-3.67-8.397.686-4.56 6.127h20.287l8.96-12.06-15.53.301 3.383-.645 4.018-5.43h4.767l-3.15 3.99 7.68-.637 2.195 5.654-2.272-1.318-5.274 7.005h.002l.933 3.14h18.906l2.364-3.14H82.152l5.157-1.154 1.045-1.39h11.932l2.366-3.143H90.717l1.915-2.54h13.499l2.006-2.665 2.021 5.205-2.272-1.318-5.274 7.006h.002l.933 3.14h17.623l2.037-2.706.806 2.706h17.623L144 17.84h-17.154v-.002Z"/>
</svg>
